icons/mobile/24/svg/permissions-24.svg

<svg width="24" height="24" viewBox="0 0 24 24" fill="none" xmlns="http://www.w3.org/2000/svg">
<path d="M13.8408 10.0303C14.1337 9.73754 14.6085 9.73743 14.9014 10.0303L16.3096 11.4395L17.7188 10.0312C18.0116 9.73838 18.4864 9.73841 18.7793 10.0312C19.0722 10.3241 19.0722 10.7989 18.7793 11.0918L17.3701 12.5L18.7793 13.9092C19.0722 14.2021 19.0722 14.6768 18.7793 14.9697C18.4864 15.2623 18.0115 15.2625 17.7188 14.9697L16.3096 13.5605L14.9014 14.9697C14.6085 15.2626 14.1337 15.2626 13.8408 14.9697C13.548 14.6768 13.5479 14.2021 13.8408 13.9092L15.249 12.5L13.8408 11.0908C13.5479 10.7979 13.5479 10.3232 13.8408 10.0303Z" fill="black"/>
<path fill-rule="evenodd" clip-rule="evenodd" d="M12 5.00098C14.1308 5.00098 16.5754 5.12049 19.2627 5.4668C20.8205 5.66758 22 6.9946 22 8.57227V16.4297C22 17.989 20.854 19.3265 19.292 19.5293C17.1258 19.8096 14.6793 20 12 20C9.86922 20 7.42458 19.8805 4.7373 19.5342C3.17954 19.3334 2 18.0064 2 16.4287V8.57129C2 7.01198 3.14602 5.67452 4.70801 5.47168C6.8742 5.19139 9.32072 5.00098 12 5.00098ZM12 18.25C14.5965 18.25 16.9667 18.0656 19.0664 17.7939C19.7402 17.7066 20.25 17.1262 20.25 16.4297V8.57227C20.25 7.88193 19.7313 7.29235 19.0391 7.20312C16.4344 6.86746 14.0652 6.75098 12 6.75098V18.25ZM10.1602 10.4385C9.86716 10.1455 9.39163 10.1455 9.09863 10.4385L6.56738 12.9707L5.28027 11.6836C4.98726 11.3908 4.51266 11.3907 4.21973 11.6836C3.92715 11.9766 3.92704 12.4512 4.21973 12.7441L6.03711 14.5615C6.17696 14.7022 6.36775 14.7811 6.56641 14.7812C6.76524 14.7812 6.95669 14.7023 7.09766 14.5615L10.1602 11.498C10.4526 11.2061 10.4527 10.7314 10.1602 10.4385Z" fill="black"/>
</svg>

<!-- This Source Code Form is subject to the terms of the Mozilla Public
   - License, v. 2.0. If a copy of the MPL was not distributed with this
   - file, You can obtain one at http://mozilla.org/MPL/2.0/. -->
<svg xmlns="http://www.w3.org/2000/svg" width="24" height="24" fill="none" viewBox="0 0 24 24">
    <path fill="#000" d="M13.84 10.03a.75.75 0 0 1 1.061 0l1.409 1.41 1.409-1.409a.75.75 0 0 1 1.06 1.06L17.37 12.5l1.41 1.41a.75.75 0 1 1-1.061 1.06l-1.41-1.41-1.408 1.41a.75.75 0 1 1-1.06-1.06l1.408-1.41-1.408-1.41a.75.75 0 0 1 0-1.06" />
    <path fill="#000" fill-rule="evenodd" d="M12 5.001c2.13 0 4.575.12 7.263.466A3.14 3.14 0 0 1 22 8.572v7.858a3.12 3.12 0 0 1-2.708 3.1 56.8 56.8 0 0 1-14.555.004A3.14 3.14 0 0 1 2 16.43V8.57a3.12 3.12 0 0 1 2.708-3.1A57 57 0 0 1 12 5.002m0 13.249c2.597 0 4.967-.184 7.066-.456a1.37 1.37 0 0 0 1.184-1.364V8.572c0-.69-.519-1.28-1.21-1.369A55 55 0 0 0 12 6.751zm-1.84-7.812a.75.75 0 0 0-1.061 0l-2.532 2.533-1.287-1.287a.75.75 0 0 0-1.06 1.06l1.817 1.818a.747.747 0 0 0 1.06 0l3.063-3.064a.75.75 0 0 0 0-1.06" clip-rule="evenodd" />
</svg>
